X:7530
T:Illegible Reel,The. HSJJ.128
M:4/4
L:1/8
Q:200
S:HSJ Jackson,Wyresdale,Lancs.1823
R:Reel
O:England
A:Lancashire
N:Illegible title in my photocopy.
H:1823
Z:Chris Partington.
K:Bb
(B/c/d) GG GGGG|(B/c/d) GGe2dc|Bdcd BdGB|AFABc2BA:|!
|:Bcde fgfd|Bcde{g}f2ed|gefd ecdB|Gccde2dc:|]
